X:3986
T:March in Bluebeard(Primo). HSJJ.064
O:england
M:2/4
L:1/8
S:HSJ Jackson,Wyresdale,Lancs.1823
R:March
A:Lancashire
H:1823
K:D
a>gfe|d2e2|f/e/f/g/ af|"sic"ee>ee|a>gfe|d2e2|f/e/f/g/ fe|dd>dd:|
|:e>dcd|e2f2|g>abg|ee>ee|
e>dcd|ee>ef|.e.d.c.B|AA>AA|a>gfe|d2e2|f/e/f/g/ af|ee>ee|a>gfe|d2e2|f/e/
f
/g/ fe|dd>dd|]


